!!!OTL: Eleisonlied Maria, die ging spazieren - Kyrieeleison.
!!!ARE: Europa, Mitteleuropa, Lothringen, Weiler
!!!SCT: D0029
!!!YEM: Copyright 1995, estate of Helmut Schaffrath.
**kern
*ICvox
*Ivox
!! Mixed meters:  4/4; 3/4; 2/4
*M2/4
*k[f#c#g#]
*f#:
{8b
8b
8b
8b
=1
*M4/4
2ff#
4een
4cc#
=2
*M3/4
4ddn
4cc#
[4b
=3
*M2/4
2b]}
=4
{8b
8b
=5
*M4/4
2.ff#
4ff#
=6
4een
4ff#
[2cc#
=7
4.cc#]}
{8cc#
8cc#
8cc#
8cc#
8cc#
=8
*M3/4
2ff#
4cc#
=9
4cc#
4b
[4an
=10
*M2/4
4an]}
{8b
8ddn
=11
4cc#
8g#
8b
=12
4an
4g#
=13
2f#}
==
!!!AGN: Legenden - Lied
!! Im Original mit der Bemerkung "ohne Taktakzente" ueberschrieben,
!!    aber mit Taktstrichen notiert; Inzipit = entfernte Variante
!!!ONB: ESAC (Essen Associative Code) Database: DVA
!!!AMT: irregular
!!!AIN: vox
!!!EED: Helmut Schaffrath
!!!EEV: 1.0
*-
